casedrop/img/errors/Group.svg

<svg width="66" height="66" viewBox="0 0 66 66" fill="none" xmlns="http://www.w3.org/2000/svg">
<path d="M47.4375 41.25C48.5766 41.25 49.5 40.3266 49.5 39.1875C49.5 38.0484 48.5766 37.125 47.4375 37.125C46.2984 37.125 45.375 38.0484 45.375 39.1875C45.375 40.3266 46.2984 41.25 47.4375 41.25Z" fill="#B0B0B0"/>
<path d="M63.9379 32.9997H61.8754V16.4997C61.8754 14.2196 60.0305 12.3747 57.7504 12.3747V8.24967C57.7504 6.8647 57.3338 5.79014 56.5078 5.05383C55.2847 3.96277 53.6863 4.11539 53.5213 4.12983C53.447 4.13705 51.9909 4.28658 49.6139 4.53202L48.9528 2.71599C48.1732 0.573049 45.8086 -0.529357 43.6656 0.250268L24.8855 7.08539C16.0209 8.0063 7.62859 8.88492 4.01199 9.28711C0.981149 9.6233 0.0643677 13.311 0.000430169 15.4375C-0.00369483 15.5757 0.0220864 15.7087 0.0674614 15.8294C0.0323989 16.048 0.000430169 16.2697 0.000430169 16.4997V61.8747C0.000430169 64.1548 1.84534 65.9997 4.12543 65.9997H57.7504C60.0305 65.9997 61.8754 64.1548 61.8754 61.8747V45.3747H63.9379C65.0775 45.3747 66.0004 44.4517 66.0004 43.3122V35.0622C66.0004 33.9226 65.0775 32.9997 63.9379 32.9997ZM56.7192 18.5622C57.2895 18.5622 57.7504 19.0231 57.7504 19.5934C57.7504 20.1637 57.2895 20.6247 56.7192 20.6247H54.6567C54.0864 20.6247 53.6254 20.1637 53.6254 19.5934C53.6254 19.0231 54.0864 18.5622 54.6567 18.5622H56.7192ZM51.5629 19.5934C51.5629 20.1637 51.102 20.6247 50.5317 20.6247H48.4692C47.8989 20.6247 47.4379 20.1637 47.4379 19.5934C47.4379 19.0231 47.8989 18.5622 48.4692 18.5622H50.5317C51.102 18.5622 51.5629 19.0231 51.5629 19.5934ZM7.21918 59.8122H5.15668C4.5864 59.8122 4.12543 59.3512 4.12543 58.7809C4.12543 58.2106 4.5864 57.7497 5.15668 57.7497H7.21918C7.78946 57.7497 8.25043 58.2106 8.25043 58.7809C8.25043 59.3512 7.78946 59.8122 7.21918 59.8122ZM7.21918 20.6247H5.15668C4.5864 20.6247 4.12543 20.1637 4.12543 19.5934C4.12543 19.0231 4.5864 18.5622 5.15668 18.5622H7.21918C7.78946 18.5622 8.25043 19.0231 8.25043 19.5934C8.25043 20.1637 7.78946 20.6247 7.21918 20.6247ZM13.4067 59.8122H11.3442C10.7739 59.8122 10.3129 59.3512 10.3129 58.7809C10.3129 58.2106 10.7739 57.7497 11.3442 57.7497H13.4067C13.977 57.7497 14.4379 58.2106 14.4379 58.7809C14.4379 59.3512 13.977 59.8122 13.4067 59.8122ZM13.4067 20.6247H11.3442C10.7739 20.6247 10.3129 20.1637 10.3129 19.5934C10.3129 19.0231 10.7739 18.5622 11.3442 18.5622H13.4067C13.977 18.5622 14.4379 19.0231 14.4379 19.5934C14.4379 20.1637 13.977 20.6247 13.4067 20.6247ZM19.5942 59.8122H17.5317C16.9614 59.8122 16.5004 59.3512 16.5004 58.7809C16.5004 58.2106 16.9614 57.7497 17.5317 57.7497H19.5942C20.1645 57.7497 20.6254 58.2106 20.6254 58.7809C20.6254 59.3512 20.1645 59.8122 19.5942 59.8122ZM19.5942 20.6247H17.5317C16.9614 20.6247 16.5004 20.1637 16.5004 19.5934C16.5004 19.0231 16.9614 18.5622 17.5317 18.5622H19.5942C20.1645 18.5622 20.6254 19.0231 20.6254 19.5934C20.6254 20.1637 20.1645 20.6247 19.5942 20.6247ZM25.7817 59.8122H23.7192C23.1489 59.8122 22.6879 59.3512 22.6879 58.7809C22.6879 58.2106 23.1489 57.7497 23.7192 57.7497H25.7817C26.352 57.7497 26.8129 58.2106 26.8129 58.7809C26.8129 59.3512 26.352 59.8122 25.7817 59.8122ZM25.7817 20.6247H23.7192C23.1489 20.6247 22.6879 20.1637 22.6879 19.5934C22.6879 19.0231 23.1489 18.5622 23.7192 18.5622H25.7817C26.352 18.5622 26.8129 19.0231 26.8129 19.5934C26.8129 20.1637 26.352 20.6247 25.7817 20.6247ZM31.9692 59.8122H29.9067C29.3364 59.8122 28.8754 59.3512 28.8754 58.7809C28.8754 58.2106 29.3364 57.7497 29.9067 57.7497H31.9692C32.5395 57.7497 33.0004 58.2106 33.0004 58.7809C33.0004 59.3512 32.5395 59.8122 31.9692 59.8122ZM31.9692 20.6247H29.9067C29.3364 20.6247 28.8754 20.1637 28.8754 19.5934C28.8754 19.0231 29.3364 18.5622 29.9067 18.5622H31.9692C32.5395 18.5622 33.0004 19.0231 33.0004 19.5934C33.0004 20.1637 32.5395 20.6247 31.9692 20.6247ZM32.3301 12.3747H16.3818L44.371 2.18799C45.4425 1.79817 46.6253 2.34989 47.0151 3.42033L50.2739 12.3747H43.9853C43.1335 9.97392 40.8493 8.24967 38.1567 8.24967C35.4641 8.24967 33.1799 9.97392 32.3301 12.3747ZM45.3754 19.5934C45.3754 20.1637 44.9145 20.6247 44.3442 20.6247H42.2817C41.7114 20.6247 41.2504 20.1637 41.2504 19.5934C41.2504 19.0231 41.7114 18.5622 42.2817 18.5622H44.3442C44.9145 18.5622 45.3754 19.0231 45.3754 19.5934ZM38.1567 10.3122C39.6798 10.3122 40.9947 11.1475 41.7093 12.3747H34.603C35.3187 11.1475 36.6335 10.3122 38.1567 10.3122ZM38.1567 59.8122H36.0942C35.5239 59.8122 35.0629 59.3512 35.0629 58.7809C35.0629 58.2106 35.5239 57.7497 36.0942 57.7497H38.1567C38.727 57.7497 39.1879 58.2106 39.1879 58.7809C39.1879 59.3512 38.727 59.8122 38.1567 59.8122ZM38.1567 20.6247H36.0942C35.5239 20.6247 35.0629 20.1637 35.0629 19.5934C35.0629 19.0231 35.5239 18.5622 36.0942 18.5622H38.1567C38.727 18.5622 39.1879 19.0231 39.1879 19.5934C39.1879 20.1637 38.727 20.6247 38.1567 20.6247ZM44.3442 59.8122H42.2817C41.7114 59.8122 41.2504 59.3512 41.2504 58.7809C41.2504 58.2106 41.7114 57.7497 42.2817 57.7497H44.3442C44.9145 57.7497 45.3754 58.2106 45.3754 58.7809C45.3754 59.3512 44.9145 59.8122 44.3442 59.8122ZM50.5317 59.8122H48.4692C47.8989 59.8122 47.4379 59.3512 47.4379 58.7809C47.4379 58.2106 47.8989 57.7497 48.4692 57.7497H50.5317C51.102 57.7497 51.5629 58.2106 51.5629 58.7809C51.5629 59.3512 51.102 59.8122 50.5317 59.8122ZM56.7192 59.8122H54.6567C54.0864 59.8122 53.6254 59.3512 53.6254 58.7809C53.6254 58.2106 54.0864 57.7497 54.6567 57.7497H56.7192C57.2895 57.7497 57.7504 58.2106 57.7504 58.7809C57.7504 59.3512 57.2895 59.8122 56.7192 59.8122ZM63.9379 42.2809C63.9379 42.8512 63.477 43.3122 62.9067 43.3122H44.3442C43.7739 43.3122 43.3129 42.8512 43.3129 42.2809V36.0934C43.3129 35.5231 43.7739 35.0622 44.3442 35.0622H62.9067C63.477 35.0622 63.9379 35.5231 63.9379 36.0934V42.2809Z" fill="white"/>
</svg>

<svg width="66" height="66" fill="none" xmlns="http://www.w3.org/2000/svg"><path d="M47.438 41.25a2.062 2.062 0 100-4.125 2.062 2.062 0 000 4.125z" fill="#B0B0B0"/><path d="M63.938 33h-2.063V16.5a4.123 4.123 0 00-4.125-4.125V8.25c0-1.385-.416-2.46-1.242-3.196-1.223-1.091-2.822-.939-2.987-.924l-3.907.402-.661-1.816A4.122 4.122 0 0043.666.25l-18.78 6.835c-8.865.921-17.257 1.8-20.874 2.202C.982 9.623.064 13.311 0 15.437c-.004.139.022.272.067.392-.035.219-.067.44-.067.67v45.376A4.123 4.123 0 004.125 66H57.75a4.123 4.123 0 004.125-4.125v-16.5h2.063c1.14 0 2.062-.923 2.062-2.063v-8.25A2.06 2.06 0 0063.938 33zm-7.219-14.438a1.03 1.03 0 110 2.063h-2.062a1.03 1.03 0 110-2.063h2.062zm-5.156 1.031c0 .57-.461 1.032-1.031 1.032h-2.063a1.03 1.03 0 110-2.063h2.063c.57 0 1.03.461 1.03 1.031zM7.219 59.813H5.157a1.03 1.03 0 110-2.063h2.062a1.03 1.03 0 110 2.062zm0-39.188H5.157a1.03 1.03 0 110-2.063h2.062a1.03 1.03 0 110 2.063zm6.188 39.187h-2.063a1.03 1.03 0 110-2.062h2.063a1.03 1.03 0 110 2.062zm0-39.187h-2.063a1.03 1.03 0 110-2.063h2.063a1.03 1.03 0 110 2.063zm6.187 39.187h-2.062a1.03 1.03 0 110-2.062h2.062a1.03 1.03 0 110 2.062zm0-39.187h-2.062a1.03 1.03 0 110-2.063h2.062a1.03 1.03 0 110 2.063zm6.188 39.187h-2.063a1.03 1.03 0 110-2.062h2.063a1.03 1.03 0 110 2.062zm0-39.187h-2.063a1.03 1.03 0 110-2.063h2.063a1.03 1.03 0 110 2.063zm6.187 39.187h-2.062a1.03 1.03 0 110-2.062h2.062a1.03 1.03 0 110 2.062zm0-39.187h-2.062a1.03 1.03 0 110-2.063h2.062a1.03 1.03 0 110 2.063zm.361-8.25H16.382L44.37 2.188a2.062 2.062 0 012.644 1.232l3.259 8.955h-6.289a6.188 6.188 0 00-5.828-4.125 6.184 6.184 0 00-5.827 4.125zm13.045 7.218c0 .57-.46 1.032-1.03 1.032h-2.063a1.03 1.03 0 110-2.063h2.062c.57 0 1.031.461 1.031 1.031zm-7.218-9.28c1.523 0 2.838.835 3.552 2.062h-7.106c.716-1.227 2.03-2.063 3.554-2.063zm0 49.5h-2.063a1.03 1.03 0 110-2.063h2.063a1.03 1.03 0 110 2.062zm0-39.188h-2.063a1.03 1.03 0 110-2.063h2.063a1.03 1.03 0 110 2.063zm6.187 39.187h-2.062a1.03 1.03 0 110-2.062h2.062a1.03 1.03 0 110 2.062zm6.188 0h-2.063a1.03 1.03 0 110-2.062h2.063a1.03 1.03 0 110 2.062zm6.187 0h-2.062a1.03 1.03 0 110-2.062h2.062a1.03 1.03 0 110 2.062zm7.219-17.531a1.03 1.03 0 01-1.031 1.031H44.344a1.03 1.03 0 01-1.031-1.031v-6.188c0-.57.46-1.03 1.031-1.03h18.563c.57 0 1.03.46 1.03 1.03v6.188z" fill="#fff"/></svg>
